app/assets/images/heart-active.svg

<svg height="30" viewBox="0 0 32 30" width="32" xmlns="http://www.w3.org/2000/svg"><path d="m25 781c-3.333 0-6.018 1.842-8.031 4.235-1.956-2.475-4.636-4.235-7.969-4.235-4.694 0-8 4.036-8 8.438 0 2.361.967 4.061 2.026 5.659l12.433 14.906c1.395 1.309 1.659 1.309 3.054 0l12.461-14.906c1.246-1.598 2.026-3.298 2.026-5.659 0-4.402-3.306-8.438-8-8.438" fill="#ff510f" fill-rule="evenodd" transform="translate(-1 -781)"/></svg>

<?xml version="1.0" encoding="UTF-8"?>
<svg width="32px" height="30px" viewBox="0 0 32 30" version="1.1" xmlns="http://www.w3.org/2000/svg" xmlns:xlink="http://www.w3.org/1999/xlink">
    <!-- Generator: Sketch 63.1 (92452) - https://sketch.com -->
    <title>Fill 72</title>
    <desc>Created with Sketch.</desc>
    <g id="🔍-Additional-Icons" stroke="none" stroke-width="1" fill="none" fill-rule="evenodd">
        <g id="Solid" transform="translate(-108.000000, -875.000000)" fill="#FF510F">
            <g id="Icons" transform="translate(107.000000, 94.000000)">
                <path d="M25,781 C21.667,781 18.982,782.842 16.969,785.235 C15.013,782.76 12.333,781 9,781 C4.306,781 1,785.036 1,789.438 C1,791.799 1.967,793.499 3.026,795.097 L15.459,810.003 C16.854,811.312 17.118,811.312 18.513,810.003 L30.974,795.097 C32.22,793.499 33,791.799 33,789.438 C33,785.036 29.694,781 25,781" id="Fill-72"></path>
            </g>
        </g>
    </g>
</svg>
